X:1
T:Title
%%score ( 1 2 ) 3
L:1/8
Q:1/4=108
M:2/2
K:G
V:1 treble nm="Grand Piano, Soprano"
V:2 treble 
V:3 bass nm="Choir Pad, Easter Dawn, 77.77"
V:1
 [GB]3 [Ac] [Bd]2 [ce]2 | [Bd]2 [Ac]2 [GB]4 | [FA]3 [GB] [Ac]2 [Bd]2 | [Ac]2 [GB]2 [FA]4 | %4
w: By~Charles~Ainslie~Barry~(1830\-1915) * * *||||
 [Ec]3 [Ec] [^DB]2 [DA]2 | [EG]2 [FA]2 [^DB]3 B | d2 B2 A2 G2 | .E3 G [B,G]4- | [B,G]4 z4 |] %9
w: |||||
V:2
 x8 | x8 | x8 | x8 | x8 | x8 | x8 | z2 C2 z4 | x8 |] %9
V:3
 [G,D]8 | [G,D]8 | [D,D]8 | [D,D]8 | A,4 B,4 | C4 B,3 B, | D2 B,2 A,2 G,2 | %7
 E,2 [C,G,]2 [G,,D,G,]4- | [G,,D,G,]4 z4 |] %9

